dist/svgs/devui-icons/op/setup.svg

<?xml version="1.0" encoding="UTF-8"?>
<svg width="16px" height="16px" viewBox="0 0 16 16" version="1.1" xmlns="http://www.w3.org/2000/svg" xmlns:xlink="http://www.w3.org/1999/xlink">
    <title>操作/设置</title>
    <desc>Created with Sketch.</desc>
    <g id="操作/设置" stroke="none" stroke-width="1" fill="none" fill-rule="evenodd">
        <path d="M8,12 C10.209139,12 12,10.209139 12,8 C12,5.790861 10.209139,4 8,4 C5.790861,4 4,5.790861 4,8 C4,10.209139 5.790861,12 8,12 Z M4.52067059,3.11124369 C5.24511171,2.59473146 6.08922816,2.23522497 7.00334609,2.08239805 C7.00112987,2.05522493 7,2.02774441 7,2 L7,1 C7,0.44771525 7.44771525,1.01453063e-16 8,0 C8.55228475,-1.01453063e-16 9,0.44771525 9,1 L9,2 C9,2.02774441 8.99887013,2.05522493 8.99665391,2.08239805 C9.91077184,2.23522497 10.7548883,2.59473146 11.4793294,3.11124369 C11.4970673,3.09033559 11.5158021,3.06998434 11.5355339,3.05025253 L12.2426407,2.34314575 C12.633165,1.95262146 13.26633,1.95262146 13.6568542,2.34314575 C14.0473785,2.73367004 14.0473785,3.36683502 13.6568542,3.75735931 L12.9497475,4.46446609 C12.9300157,4.4841979 12.9096644,4.50293273 12.8887563,4.52067059 C13.4052685,5.24511171 13.764775,6.08922816 13.917602,7.00334609 C13.9447751,7.00112987 13.9722556,7 14,7 L15,7 C15.5522847,7 16,7.44771525 16,8 C16,8.55228475 15.5522847,9 15,9 L14,9 C13.9722556,9 13.9447751,8.99887013 13.917602,8.99665391 C13.764775,9.91077184 13.4052685,10.7548883 12.8887563,11.4793294 C12.9096644,11.4970673 12.9300157,11.5158021 12.9497475,11.5355339 L13.6568542,12.2426407 C14.0473785,12.633165 14.0473785,13.26633 13.6568542,13.6568542 C13.26633,14.0473785 12.633165,14.0473785 12.2426407,13.6568542 L11.5355339,12.9497475 C11.5158021,12.9300157 11.4970673,12.9096644 11.4793294,12.8887563 C10.7548883,13.4052685 9.91077184,13.764775 8.99665391,13.917602 C8.99887013,13.9447751 9,13.9722556 9,14 L9,15 C9,15.5522847 8.55228475,16 8,16 C7.44771525,16 7,15.5522847 7,15 L7,14 C7,13.9722556 7.00112987,13.9447751 7.00334609,13.917602 C6.08922816,13.764775 5.24511171,13.4052685 4.52067059,12.8887563 C4.50293273,12.9096644 4.4841979,12.9300157 4.46446609,12.9497475 L3.75735931,13.6568542 C3.36683502,14.0473785 2.73367004,14.0473785 2.34314575,13.6568542 C1.95262146,13.26633 1.95262146,12.633165 2.34314575,12.2426407 L3.05025253,11.5355339 C3.06998434,11.5158021 3.09033559,11.4970673 3.11124369,11.4793294 C2.59473146,10.7548883 2.23522497,9.91077184 2.08239805,8.99665391 C2.05522493,8.99887013 2.02774441,9 2,9 L1,9 C0.44771525,9 2.4125371e-16,8.55228475 3.83475851e-17,8 C-1.6455854e-16,7.44771525 0.44771525,7 1,7 L2,7 C2.02774441,7 2.05522493,7.00112987 2.08239805,7.00334609 C2.23522497,6.08922816 2.59473146,5.24511171 3.11124369,4.52067059 C3.09033559,4.50293273 3.06998434,4.4841979 3.05025253,4.46446609 L2.34314575,3.75735931 C1.95262146,3.36683502 1.95262146,2.73367004 2.34314575,2.34314575 C2.73367004,1.95262146 3.36683502,1.95262146 3.75735931,2.34314575 L4.46446609,3.05025253 C4.4841979,3.06998434 4.50293273,3.09033559 4.52067059,3.11124369 Z M8,9 C7.44771525,9 7,8.55228475 7,8 C7,7.44771525 7.44771525,7 8,7 C8.55228475,7 9,7.44771525 9,8 C9,8.55228475 8.55228475,9 8,9 Z" id="形状" fill="#293040" fill-rule="nonzero"></path>
    </g>
</svg>

<svg xmlns="http://www.w3.org/2000/svg" viewBox="0 0 16 16"><path d="M8 12a4 4 0 100-8 4 4 0 000 8zM4.52 3.111a5.968 5.968 0 012.483-1.029A1.013 1.013 0 017 2V1a1 1 0 112 0v1c0 .028-.001.055-.003.082a5.968 5.968 0 012.482 1.03.837.837 0 01.057-.062l.707-.707a1 1 0 111.414 1.414l-.707.707c-.02.02-.04.039-.061.057a5.968 5.968 0 011.029 2.482C13.945 7.001 13.972 7 14 7h1a1 1 0 010 2h-1c-.028 0-.055-.001-.082-.003a5.968 5.968 0 01-1.03 2.482.837.837 0 01.062.057l.707.707a1 1 0 11-1.414 1.414l-.707-.707c-.02-.02-.039-.04-.057-.061a5.968 5.968 0 01-2.482 1.029c.002.027.003.054.003.082v1a1 1 0 01-2 0v-1c0-.028.001-.055.003-.082a5.968 5.968 0 01-2.482-1.03.837.837 0 01-.057.062l-.707.707a1 1 0 01-1.414-1.414l.707-.707c.02-.02.04-.039.061-.057a5.968 5.968 0 01-1.029-2.482A1.013 1.013 0 012 9H1a1 1 0 110-2h1c.028 0 .055.001.082.003a5.968 5.968 0 011.03-2.482 1.013 1.013 0 01-.062-.057l-.707-.707a1 1 0 011.414-1.414l.707.707c.02.02.039.04.057.061zM8 9a1 1 0 110-2 1 1 0 010 2z"/></svg>
